(Exported by FreeCAD)
(Post Processor: linuxcnc_post)
(Output Time:2024-04-20 17:22:36.032881)
(begin preamble)
G17 G54 G40 G49 G80 G90
G21
(begin operation: Fixture)
(machine units: mm/min)
G54 
(finish operation: Fixture)
(begin operation: TC: 1.5mm_endmill)
(machine units: mm/min)
(TC: 1.5mm_endmill) 
M5
M6 T2 
G43 H2 
M3 S10000 
(finish operation: TC: 1.5mm_endmill)
(begin operation: NarrowHoles)
(machine units: mm/min)
(NarrowHoles) 
(Compensated Tool Path. Diameter: 1.5) 
G0 Z5.000 
G0 X9.536 Y15.027 
G0 Z3.000 
G1 X9.536 Y15.027 Z-0.500 F150.000 
G2 X9.382 Y13.855 Z-0.500 I-0.527 J-0.527 F250.000 
G2 X8.637 Y15.145 Z-0.500 I-0.373 J0.645 F250.000 
G2 X9.536 Y15.027 Z-0.500 I0.373 J-0.645 F250.000 
G1 X9.536 Y15.027 Z-1.000 F150.000 
G2 X9.382 Y13.855 Z-1.000 I-0.527 J-0.527 F250.000 
G2 X8.637 Y15.145 Z-1.000 I-0.373 J0.645 F250.000 
G2 X9.536 Y15.027 Z-1.000 I0.373 J-0.645 F250.000 
G1 X9.536 Y15.027 Z-1.500 F150.000 
G2 X9.382 Y13.855 Z-1.500 I-0.527 J-0.527 F250.000 
G2 X8.637 Y15.145 Z-1.500 I-0.373 J0.645 F250.000 
G2 X9.536 Y15.027 Z-1.500 I0.373 J-0.645 F250.000 
G1 X9.536 Y15.027 Z-2.000 F150.000 
G2 X9.382 Y13.855 Z-2.000 I-0.527 J-0.527 F250.000 
G2 X8.637 Y15.145 Z-2.000 I-0.373 J0.645 F250.000 
G2 X9.536 Y15.027 Z-2.000 I0.373 J-0.645 F250.000 
G1 X9.536 Y15.027 Z-2.500 F150.000 
G2 X9.382 Y13.855 Z-2.500 I-0.527 J-0.527 F250.000 
G2 X8.637 Y15.145 Z-2.500 I-0.373 J0.645 F250.000 
G2 X9.536 Y15.027 Z-2.500 I0.373 J-0.645 F250.000 
G1 X9.536 Y15.027 Z-3.000 F150.000 
G2 X9.382 Y13.855 Z-3.000 I-0.527 J-0.527 F250.000 
G2 X8.637 Y15.145 Z-3.000 I-0.373 J0.645 F250.000 
G2 X9.536 Y15.027 Z-3.000 I0.373 J-0.645 F250.000 
G1 X9.536 Y15.027 Z-3.500 F150.000 
G2 X9.382 Y13.855 Z-3.500 I-0.527 J-0.527 F250.000 
G2 X8.637 Y15.145 Z-3.500 I-0.373 J0.645 F250.000 
G2 X9.536 Y15.027 Z-3.500 I0.373 J-0.645 F250.000 
G1 X9.536 Y15.027 Z-4.000 F150.000 
G2 X9.382 Y13.855 Z-4.000 I-0.527 J-0.527 F250.000 
G2 X8.637 Y15.145 Z-4.000 I-0.373 J0.645 F250.000 
G2 X9.536 Y15.027 Z-4.000 I0.373 J-0.645 F250.000 
G1 X9.536 Y15.027 Z-4.500 F150.000 
G2 X9.382 Y13.855 Z-4.500 I-0.527 J-0.527 F250.000 
G2 X8.637 Y15.145 Z-4.500 I-0.373 J0.645 F250.000 
G2 X9.536 Y15.027 Z-4.500 I0.373 J-0.645 F250.000 
G1 X9.536 Y15.027 Z-5.000 F150.000 
G2 X9.382 Y13.855 Z-5.000 I-0.527 J-0.527 F250.000 
G2 X8.637 Y15.145 Z-5.000 I-0.373 J0.645 F250.000 
G2 X9.536 Y15.027 Z-5.000 I0.373 J-0.645 F250.000 
G1 X9.536 Y15.027 Z-5.500 F150.000 
G2 X9.382 Y13.855 Z-5.500 I-0.527 J-0.527 F250.000 
G2 X8.637 Y15.145 Z-5.500 I-0.373 J0.645 F250.000 
G2 X9.536 Y15.027 Z-5.500 I0.373 J-0.645 F250.000 
G1 X9.536 Y15.027 Z-6.000 F150.000 
G2 X9.382 Y13.855 Z-6.000 I-0.527 J-0.527 F250.000 
G2 X8.637 Y15.145 Z-6.000 I-0.373 J0.645 F250.000 
G2 X9.536 Y15.027 Z-6.000 I0.373 J-0.645 F250.000 
G1 X9.536 Y15.027 Z-6.500 F150.000 
G2 X9.382 Y13.855 Z-6.500 I-0.527 J-0.527 F250.000 
G2 X8.637 Y15.145 Z-6.500 I-0.373 J0.645 F250.000 
G2 X9.536 Y15.027 Z-6.500 I0.373 J-0.645 F250.000 
G1 X9.536 Y15.027 Z-7.000 F150.000 
G2 X9.382 Y13.855 Z-7.000 I-0.527 J-0.527 F250.000 
G2 X8.637 Y15.145 Z-7.000 I-0.373 J0.645 F250.000 
G2 X9.536 Y15.027 Z-7.000 I0.373 J-0.645 F250.000 
G1 X9.536 Y15.027 Z-7.500 F150.000 
G2 X9.382 Y13.855 Z-7.500 I-0.527 J-0.527 F250.000 
G2 X8.637 Y15.145 Z-7.500 I-0.373 J0.645 F250.000 
G2 X9.536 Y15.027 Z-7.500 I0.373 J-0.645 F250.000 
G1 X9.536 Y15.027 Z-8.000 F150.000 
G2 X9.382 Y13.855 Z-8.000 I-0.527 J-0.527 F250.000 
G2 X8.637 Y15.145 Z-8.000 I-0.373 J0.645 F250.000 
G2 X9.536 Y15.027 Z-8.000 I0.373 J-0.645 F250.000 
G1 X9.536 Y15.027 Z-8.500 F150.000 
G2 X9.382 Y13.855 Z-8.500 I-0.527 J-0.527 F250.000 
G2 X8.637 Y15.145 Z-8.500 I-0.373 J0.645 F250.000 
G2 X9.536 Y15.027 Z-8.500 I0.373 J-0.645 F250.000 
G1 X9.536 Y15.027 Z-8.800 F150.000 
G2 X9.382 Y13.855 Z-8.800 I-0.527 J-0.527 F250.000 
G2 X8.637 Y15.145 Z-8.800 I-0.373 J0.645 F250.000 
G2 X9.536 Y15.027 Z-8.800 I0.373 J-0.645 F250.000 
G0 Z5.000 
G0 Z5.000 
G0 X9.536 Y15.027 
G0 X11.721 Y23.921 
G0 X11.721 Y23.921 Z3.000 
G1 X11.721 Y23.921 Z-0.500 F150.000 
G2 X11.643 Y24.856 Z-0.500 I0.118 J0.481 F250.000 
G2 X12.294 Y24.599 Z-0.500 I0.197 J-0.454 F250.000 
G2 X12.036 Y23.947 Z-0.500 I-0.454 J-0.197 F250.000 
G2 X11.721 Y23.921 Z-0.500 I-0.197 J0.454 F250.000 
G1 X11.721 Y23.921 Z-1.000 F150.000 
G2 X11.643 Y24.856 Z-1.000 I0.118 J0.481 F250.000 
G2 X12.294 Y24.599 Z-1.000 I0.197 J-0.454 F250.000 
G2 X12.036 Y23.947 Z-1.000 I-0.454 J-0.197 F250.000 
G2 X11.721 Y23.921 Z-1.000 I-0.197 J0.454 F250.000 
G1 X11.721 Y23.921 Z-1.500 F150.000 
G2 X11.643 Y24.856 Z-1.500 I0.118 J0.481 F250.000 
G2 X12.294 Y24.599 Z-1.500 I0.197 J-0.454 F250.000 
G2 X12.036 Y23.947 Z-1.500 I-0.454 J-0.197 F250.000 
G2 X11.721 Y23.921 Z-1.500 I-0.197 J0.454 F250.000 
G1 X11.721 Y23.921 Z-2.000 F150.000 
G2 X11.643 Y24.856 Z-2.000 I0.118 J0.481 F250.000 
G2 X12.294 Y24.599 Z-2.000 I0.197 J-0.454 F250.000 
G2 X12.036 Y23.947 Z-2.000 I-0.454 J-0.197 F250.000 
G2 X11.721 Y23.921 Z-2.000 I-0.197 J0.454 F250.000 
G1 X11.721 Y23.921 Z-2.500 F150.000 
G2 X11.643 Y24.856 Z-2.500 I0.118 J0.481 F250.000 
G2 X12.294 Y24.599 Z-2.500 I0.197 J-0.454 F250.000 
G2 X12.036 Y23.947 Z-2.500 I-0.454 J-0.197 F250.000 
G2 X11.721 Y23.921 Z-2.500 I-0.197 J0.454 F250.000 
G1 X11.721 Y23.921 Z-3.000 F150.000 
G2 X11.643 Y24.856 Z-3.000 I0.118 J0.481 F250.000 
G2 X12.294 Y24.599 Z-3.000 I0.197 J-0.454 F250.000 
G2 X12.036 Y23.947 Z-3.000 I-0.454 J-0.197 F250.000 
G2 X11.721 Y23.921 Z-3.000 I-0.197 J0.454 F250.000 
G1 X11.721 Y23.921 Z-3.500 F150.000 
G2 X11.643 Y24.856 Z-3.500 I0.118 J0.481 F250.000 
G2 X12.294 Y24.599 Z-3.500 I0.197 J-0.454 F250.000 
G2 X12.036 Y23.947 Z-3.500 I-0.454 J-0.197 F250.000 
G2 X11.721 Y23.921 Z-3.500 I-0.197 J0.454 F250.000 
G1 X11.721 Y23.921 Z-4.000 F150.000 
G2 X11.643 Y24.856 Z-4.000 I0.118 J0.481 F250.000 
G2 X12.294 Y24.599 Z-4.000 I0.197 J-0.454 F250.000 
G2 X12.036 Y23.947 Z-4.000 I-0.454 J-0.197 F250.000 
G2 X11.721 Y23.921 Z-4.000 I-0.197 J0.454 F250.000 
G1 X11.721 Y23.921 Z-4.500 F150.000 
G2 X11.643 Y24.856 Z-4.500 I0.118 J0.481 F250.000 
G2 X12.294 Y24.599 Z-4.500 I0.197 J-0.454 F250.000 
G2 X12.036 Y23.947 Z-4.500 I-0.454 J-0.197 F250.000 
G2 X11.721 Y23.921 Z-4.500 I-0.197 J0.454 F250.000 
G1 X11.721 Y23.921 Z-5.000 F150.000 
G2 X11.643 Y24.856 Z-5.000 I0.118 J0.481 F250.000 
G2 X12.294 Y24.599 Z-5.000 I0.197 J-0.454 F250.000 
G2 X12.036 Y23.947 Z-5.000 I-0.454 J-0.197 F250.000 
G2 X11.721 Y23.921 Z-5.000 I-0.197 J0.454 F250.000 
G1 X11.721 Y23.921 Z-5.500 F150.000 
G2 X11.643 Y24.856 Z-5.500 I0.118 J0.481 F250.000 
G2 X12.294 Y24.599 Z-5.500 I0.197 J-0.454 F250.000 
G2 X12.036 Y23.947 Z-5.500 I-0.454 J-0.197 F250.000 
G2 X11.721 Y23.921 Z-5.500 I-0.197 J0.454 F250.000 
G1 X11.721 Y23.921 Z-6.000 F150.000 
G2 X11.643 Y24.856 Z-6.000 I0.118 J0.481 F250.000 
G2 X12.294 Y24.599 Z-6.000 I0.197 J-0.454 F250.000 
G2 X12.036 Y23.947 Z-6.000 I-0.454 J-0.197 F250.000 
G2 X11.721 Y23.921 Z-6.000 I-0.197 J0.454 F250.000 
G1 X11.721 Y23.921 Z-6.500 F150.000 
G2 X11.643 Y24.856 Z-6.500 I0.118 J0.481 F250.000 
G2 X12.294 Y24.599 Z-6.500 I0.197 J-0.454 F250.000 
G2 X12.036 Y23.947 Z-6.500 I-0.454 J-0.197 F250.000 
G2 X11.721 Y23.921 Z-6.500 I-0.197 J0.454 F250.000 
G1 X11.721 Y23.921 Z-7.000 F150.000 
G2 X11.643 Y24.856 Z-7.000 I0.118 J0.481 F250.000 
G2 X12.294 Y24.599 Z-7.000 I0.197 J-0.454 F250.000 
G2 X12.036 Y23.947 Z-7.000 I-0.454 J-0.197 F250.000 
G2 X11.721 Y23.921 Z-7.000 I-0.197 J0.454 F250.000 
G1 X11.721 Y23.921 Z-7.500 F150.000 
G2 X11.643 Y24.856 Z-7.500 I0.118 J0.481 F250.000 
G2 X12.294 Y24.599 Z-7.500 I0.197 J-0.454 F250.000 
G2 X12.036 Y23.947 Z-7.500 I-0.454 J-0.197 F250.000 
G2 X11.721 Y23.921 Z-7.500 I-0.197 J0.454 F250.000 
G1 X11.721 Y23.921 Z-8.000 F150.000 
G2 X11.643 Y24.856 Z-8.000 I0.118 J0.481 F250.000 
G2 X12.294 Y24.599 Z-8.000 I0.197 J-0.454 F250.000 
G2 X12.036 Y23.947 Z-8.000 I-0.454 J-0.197 F250.000 
G2 X11.721 Y23.921 Z-8.000 I-0.197 J0.454 F250.000 
G1 X11.721 Y23.921 Z-8.500 F150.000 
G2 X11.643 Y24.856 Z-8.500 I0.118 J0.481 F250.000 
G2 X12.294 Y24.599 Z-8.500 I0.197 J-0.454 F250.000 
G2 X12.036 Y23.947 Z-8.500 I-0.454 J-0.197 F250.000 
G2 X11.721 Y23.921 Z-8.500 I-0.197 J0.454 F250.000 
G1 X11.721 Y23.921 Z-8.800 F150.000 
G2 X11.643 Y24.856 Z-8.800 I0.118 J0.481 F250.000 
G2 X12.294 Y24.599 Z-8.800 I0.197 J-0.454 F250.000 
G2 X12.036 Y23.947 Z-8.800 I-0.454 J-0.197 F250.000 
G2 X11.721 Y23.921 Z-8.800 I-0.197 J0.454 F250.000 
G0 Z5.000 
G0 Z5.000 
G0 X11.721 Y23.921 
G0 X14.601 Y29.164 
G0 X14.601 Y29.164 Z3.000 
G1 X14.601 Y29.164 Z-0.500 F150.000 
G2 X14.643 Y30.053 Z-0.500 I0.238 J0.434 F250.000 
G2 X15.294 Y29.795 Z-0.500 I0.197 J-0.454 F250.000 
G2 X15.036 Y29.144 Z-0.500 I-0.454 J-0.197 F250.000 
G2 X14.601 Y29.164 Z-0.500 I-0.197 J0.454 F250.000 
G1 X14.601 Y29.164 Z-1.000 F150.000 
G2 X14.643 Y30.053 Z-1.000 I0.238 J0.434 F250.000 
G2 X15.294 Y29.795 Z-1.000 I0.197 J-0.454 F250.000 
G2 X15.036 Y29.144 Z-1.000 I-0.454 J-0.197 F250.000 
G2 X14.601 Y29.164 Z-1.000 I-0.197 J0.454 F250.000 
G1 X14.601 Y29.164 Z-1.500 F150.000 
G2 X14.643 Y30.053 Z-1.500 I0.238 J0.434 F250.000 
G2 X15.294 Y29.795 Z-1.500 I0.197 J-0.454 F250.000 
G2 X15.036 Y29.144 Z-1.500 I-0.454 J-0.197 F250.000 
G2 X14.601 Y29.164 Z-1.500 I-0.197 J0.454 F250.000 
G1 X14.601 Y29.164 Z-2.000 F150.000 
G2 X14.643 Y30.053 Z-2.000 I0.238 J0.434 F250.000 
G2 X15.294 Y29.795 Z-2.000 I0.197 J-0.454 F250.000 
G2 X15.036 Y29.144 Z-2.000 I-0.454 J-0.197 F250.000 
G2 X14.601 Y29.164 Z-2.000 I-0.197 J0.454 F250.000 
G1 X14.601 Y29.164 Z-2.500 F150.000 
G2 X14.643 Y30.053 Z-2.500 I0.238 J0.434 F250.000 
G2 X15.294 Y29.795 Z-2.500 I0.197 J-0.454 F250.000 
G2 X15.036 Y29.144 Z-2.500 I-0.454 J-0.197 F250.000 
G2 X14.601 Y29.164 Z-2.500 I-0.197 J0.454 F250.000 
G1 X14.601 Y29.164 Z-3.000 F150.000 
G2 X14.643 Y30.053 Z-3.000 I0.238 J0.434 F250.000 
G2 X15.294 Y29.795 Z-3.000 I0.197 J-0.454 F250.000 
G2 X15.036 Y29.144 Z-3.000 I-0.454 J-0.197 F250.000 
G2 X14.601 Y29.164 Z-3.000 I-0.197 J0.454 F250.000 
G1 X14.601 Y29.164 Z-3.500 F150.000 
G2 X14.643 Y30.053 Z-3.500 I0.238 J0.434 F250.000 
G2 X15.294 Y29.795 Z-3.500 I0.197 J-0.454 F250.000 
G2 X15.036 Y29.144 Z-3.500 I-0.454 J-0.197 F250.000 
G2 X14.601 Y29.164 Z-3.500 I-0.197 J0.454 F250.000 
G1 X14.601 Y29.164 Z-4.000 F150.000 
G2 X14.643 Y30.053 Z-4.000 I0.238 J0.434 F250.000 
G2 X15.294 Y29.795 Z-4.000 I0.197 J-0.454 F250.000 
G2 X15.036 Y29.144 Z-4.000 I-0.454 J-0.197 F250.000 
G2 X14.601 Y29.164 Z-4.000 I-0.197 J0.454 F250.000 
G1 X14.601 Y29.164 Z-4.500 F150.000 
G2 X14.643 Y30.053 Z-4.500 I0.238 J0.434 F250.000 
G2 X15.294 Y29.795 Z-4.500 I0.197 J-0.454 F250.000 
G2 X15.036 Y29.144 Z-4.500 I-0.454 J-0.197 F250.000 
G2 X14.601 Y29.164 Z-4.500 I-0.197 J0.454 F250.000 
G1 X14.601 Y29.164 Z-5.000 F150.000 
G2 X14.643 Y30.053 Z-5.000 I0.238 J0.434 F250.000 
G2 X15.294 Y29.795 Z-5.000 I0.197 J-0.454 F250.000 
G2 X15.036 Y29.144 Z-5.000 I-0.454 J-0.197 F250.000 
G2 X14.601 Y29.164 Z-5.000 I-0.197 J0.454 F250.000 
G1 X14.601 Y29.164 Z-5.500 F150.000 
G2 X14.643 Y30.053 Z-5.500 I0.238 J0.434 F250.000 
G2 X15.294 Y29.795 Z-5.500 I0.197 J-0.454 F250.000 
G2 X15.036 Y29.144 Z-5.500 I-0.454 J-0.197 F250.000 
G2 X14.601 Y29.164 Z-5.500 I-0.197 J0.454 F250.000 
G1 X14.601 Y29.164 Z-6.000 F150.000 
G2 X14.643 Y30.053 Z-6.000 I0.238 J0.434 F250.000 
G2 X15.294 Y29.795 Z-6.000 I0.197 J-0.454 F250.000 
G2 X15.036 Y29.144 Z-6.000 I-0.454 J-0.197 F250.000 
G2 X14.601 Y29.164 Z-6.000 I-0.197 J0.454 F250.000 
G1 X14.601 Y29.164 Z-6.500 F150.000 
G2 X14.643 Y30.053 Z-6.500 I0.238 J0.434 F250.000 
G2 X15.294 Y29.795 Z-6.500 I0.197 J-0.454 F250.000 
G2 X15.036 Y29.144 Z-6.500 I-0.454 J-0.197 F250.000 
G2 X14.601 Y29.164 Z-6.500 I-0.197 J0.454 F250.000 
G1 X14.601 Y29.164 Z-7.000 F150.000 
G2 X14.643 Y30.053 Z-7.000 I0.238 J0.434 F250.000 
G2 X15.294 Y29.795 Z-7.000 I0.197 J-0.454 F250.000 
G2 X15.036 Y29.144 Z-7.000 I-0.454 J-0.197 F250.000 
G2 X14.601 Y29.164 Z-7.000 I-0.197 J0.454 F250.000 
G1 X14.601 Y29.164 Z-7.500 F150.000 
G2 X14.643 Y30.053 Z-7.500 I0.238 J0.434 F250.000 
G2 X15.294 Y29.795 Z-7.500 I0.197 J-0.454 F250.000 
G2 X15.036 Y29.144 Z-7.500 I-0.454 J-0.197 F250.000 
G2 X14.601 Y29.164 Z-7.500 I-0.197 J0.454 F250.000 
G1 X14.601 Y29.164 Z-8.000 F150.000 
G2 X14.643 Y30.053 Z-8.000 I0.238 J0.434 F250.000 
G2 X15.294 Y29.795 Z-8.000 I0.197 J-0.454 F250.000 
G2 X15.036 Y29.144 Z-8.000 I-0.454 J-0.197 F250.000 
G2 X14.601 Y29.164 Z-8.000 I-0.197 J0.454 F250.000 
G1 X14.601 Y29.164 Z-8.500 F150.000 
G2 X14.643 Y30.053 Z-8.500 I0.238 J0.434 F250.000 
G2 X15.294 Y29.795 Z-8.500 I0.197 J-0.454 F250.000 
G2 X15.036 Y29.144 Z-8.500 I-0.454 J-0.197 F250.000 
G2 X14.601 Y29.164 Z-8.500 I-0.197 J0.454 F250.000 
G1 X14.601 Y29.164 Z-8.800 F150.000 
G2 X14.643 Y30.053 Z-8.800 I0.238 J0.434 F250.000 
G2 X15.294 Y29.795 Z-8.800 I0.197 J-0.454 F250.000 
G2 X15.036 Y29.144 Z-8.800 I-0.454 J-0.197 F250.000 
G2 X14.601 Y29.164 Z-8.800 I-0.197 J0.454 F250.000 
G0 Z5.000 
G0 Z5.000 
G0 X14.601 Y29.164 
G0 X21.488 Y36.458 
G0 X21.488 Y36.458 Z3.000 
G1 X21.488 Y36.458 Z-0.500 F150.000 
G2 X21.677 Y37.671 Z-0.500 I0.512 J0.542 F250.000 
G2 X22.671 Y37.323 Z-0.500 I0.323 J-0.671 F250.000 
G2 X22.323 Y36.329 Z-0.500 I-0.671 J-0.323 F250.000 
G2 X21.488 Y36.458 Z-0.500 I-0.323 J0.671 F250.000 
G1 X21.488 Y36.458 Z-1.000 F150.000 
G2 X21.677 Y37.671 Z-1.000 I0.512 J0.542 F250.000 
G2 X22.671 Y37.323 Z-1.000 I0.323 J-0.671 F250.000 
G2 X22.323 Y36.329 Z-1.000 I-0.671 J-0.323 F250.000 
G2 X21.488 Y36.458 Z-1.000 I-0.323 J0.671 F250.000 
G1 X21.488 Y36.458 Z-1.500 F150.000 
G2 X21.677 Y37.671 Z-1.500 I0.512 J0.542 F250.000 
G2 X22.671 Y37.323 Z-1.500 I0.323 J-0.671 F250.000 
G2 X22.323 Y36.329 Z-1.500 I-0.671 J-0.323 F250.000 
G2 X21.488 Y36.458 Z-1.500 I-0.323 J0.671 F250.000 
G1 X21.488 Y36.458 Z-2.000 F150.000 
G2 X21.677 Y37.671 Z-2.000 I0.512 J0.542 F250.000 
G2 X22.671 Y37.323 Z-2.000 I0.323 J-0.671 F250.000 
G2 X22.323 Y36.329 Z-2.000 I-0.671 J-0.323 F250.000 
G2 X21.488 Y36.458 Z-2.000 I-0.323 J0.671 F250.000 
G1 X21.488 Y36.458 Z-2.500 F150.000 
G2 X21.677 Y37.671 Z-2.500 I0.512 J0.542 F250.000 
G2 X22.671 Y37.323 Z-2.500 I0.323 J-0.671 F250.000 
G2 X22.323 Y36.329 Z-2.500 I-0.671 J-0.323 F250.000 
G2 X21.488 Y36.458 Z-2.500 I-0.323 J0.671 F250.000 
G1 X21.488 Y36.458 Z-3.000 F150.000 
G2 X21.677 Y37.671 Z-3.000 I0.512 J0.542 F250.000 
G2 X22.671 Y37.323 Z-3.000 I0.323 J-0.671 F250.000 
G2 X22.323 Y36.329 Z-3.000 I-0.671 J-0.323 F250.000 
G2 X21.488 Y36.458 Z-3.000 I-0.323 J0.671 F250.000 
G1 X21.488 Y36.458 Z-3.500 F150.000 
G2 X21.677 Y37.671 Z-3.500 I0.512 J0.542 F250.000 
G2 X22.671 Y37.323 Z-3.500 I0.323 J-0.671 F250.000 
G2 X22.323 Y36.329 Z-3.500 I-0.671 J-0.323 F250.000 
G2 X21.488 Y36.458 Z-3.500 I-0.323 J0.671 F250.000 
G1 X21.488 Y36.458 Z-4.000 F150.000 
G2 X21.677 Y37.671 Z-4.000 I0.512 J0.542 F250.000 
G2 X22.671 Y37.323 Z-4.000 I0.323 J-0.671 F250.000 
G2 X22.323 Y36.329 Z-4.000 I-0.671 J-0.323 F250.000 
G2 X21.488 Y36.458 Z-4.000 I-0.323 J0.671 F250.000 
G1 X21.488 Y36.458 Z-4.500 F150.000 
G2 X21.677 Y37.671 Z-4.500 I0.512 J0.542 F250.000 
G2 X22.671 Y37.323 Z-4.500 I0.323 J-0.671 F250.000 
G2 X22.323 Y36.329 Z-4.500 I-0.671 J-0.323 F250.000 
G2 X21.488 Y36.458 Z-4.500 I-0.323 J0.671 F250.000 
G1 X21.488 Y36.458 Z-5.000 F150.000 
G2 X21.677 Y37.671 Z-5.000 I0.512 J0.542 F250.000 
G2 X22.671 Y37.323 Z-5.000 I0.323 J-0.671 F250.000 
G2 X22.323 Y36.329 Z-5.000 I-0.671 J-0.323 F250.000 
G2 X21.488 Y36.458 Z-5.000 I-0.323 J0.671 F250.000 
G1 X21.488 Y36.458 Z-5.500 F150.000 
G2 X21.677 Y37.671 Z-5.500 I0.512 J0.542 F250.000 
G2 X22.671 Y37.323 Z-5.500 I0.323 J-0.671 F250.000 
G2 X22.323 Y36.329 Z-5.500 I-0.671 J-0.323 F250.000 
G2 X21.488 Y36.458 Z-5.500 I-0.323 J0.671 F250.000 
G1 X21.488 Y36.458 Z-6.000 F150.000 
G2 X21.677 Y37.671 Z-6.000 I0.512 J0.542 F250.000 
G2 X22.671 Y37.323 Z-6.000 I0.323 J-0.671 F250.000 
G2 X22.323 Y36.329 Z-6.000 I-0.671 J-0.323 F250.000 
G2 X21.488 Y36.458 Z-6.000 I-0.323 J0.671 F250.000 
G1 X21.488 Y36.458 Z-6.500 F150.000 
G2 X21.677 Y37.671 Z-6.500 I0.512 J0.542 F250.000 
G2 X22.671 Y37.323 Z-6.500 I0.323 J-0.671 F250.000 
G2 X22.323 Y36.329 Z-6.500 I-0.671 J-0.323 F250.000 
G2 X21.488 Y36.458 Z-6.500 I-0.323 J0.671 F250.000 
G1 X21.488 Y36.458 Z-7.000 F150.000 
G2 X21.677 Y37.671 Z-7.000 I0.512 J0.542 F250.000 
G2 X22.671 Y37.323 Z-7.000 I0.323 J-0.671 F250.000 
G2 X22.323 Y36.329 Z-7.000 I-0.671 J-0.323 F250.000 
G2 X21.488 Y36.458 Z-7.000 I-0.323 J0.671 F250.000 
G1 X21.488 Y36.458 Z-7.500 F150.000 
G2 X21.677 Y37.671 Z-7.500 I0.512 J0.542 F250.000 
G2 X22.671 Y37.323 Z-7.500 I0.323 J-0.671 F250.000 
G2 X22.323 Y36.329 Z-7.500 I-0.671 J-0.323 F250.000 
G2 X21.488 Y36.458 Z-7.500 I-0.323 J0.671 F250.000 
G1 X21.488 Y36.458 Z-8.000 F150.000 
G2 X21.677 Y37.671 Z-8.000 I0.512 J0.542 F250.000 
G2 X22.671 Y37.323 Z-8.000 I0.323 J-0.671 F250.000 
G2 X22.323 Y36.329 Z-8.000 I-0.671 J-0.323 F250.000 
G2 X21.488 Y36.458 Z-8.000 I-0.323 J0.671 F250.000 
G1 X21.488 Y36.458 Z-8.500 F150.000 
G2 X21.677 Y37.671 Z-8.500 I0.512 J0.542 F250.000 
G2 X22.671 Y37.323 Z-8.500 I0.323 J-0.671 F250.000 
G2 X22.323 Y36.329 Z-8.500 I-0.671 J-0.323 F250.000 
G2 X21.488 Y36.458 Z-8.500 I-0.323 J0.671 F250.000 
G1 X21.488 Y36.458 Z-8.800 F150.000 
G2 X21.677 Y37.671 Z-8.800 I0.512 J0.542 F250.000 
G2 X22.671 Y37.323 Z-8.800 I0.323 J-0.671 F250.000 
G2 X22.323 Y36.329 Z-8.800 I-0.671 J-0.323 F250.000 
G2 X21.488 Y36.458 Z-8.800 I-0.323 J0.671 F250.000 
G0 Z5.000 
G0 Z5.000 
G0 X21.488 Y36.458 
G0 X28.792 Y29.928 
G0 X28.792 Y29.928 Z3.000 
G1 X28.792 Y29.928 Z-0.500 F150.000 
G2 X28.913 Y30.026 Z-0.500 I0.369 J-0.330 F250.000 
G2 X29.407 Y29.170 Z-0.500 I0.247 J-0.428 F250.000 
G2 X28.792 Y29.928 Z-0.500 I-0.247 J0.428 F250.000 
G1 X28.792 Y29.928 Z-1.000 F150.000 
G2 X28.913 Y30.026 Z-1.000 I0.369 J-0.330 F250.000 
G2 X29.407 Y29.170 Z-1.000 I0.247 J-0.428 F250.000 
G2 X28.792 Y29.928 Z-1.000 I-0.247 J0.428 F250.000 
G1 X28.792 Y29.928 Z-1.500 F150.000 
G2 X28.913 Y30.026 Z-1.500 I0.369 J-0.330 F250.000 
G2 X29.407 Y29.170 Z-1.500 I0.247 J-0.428 F250.000 
G2 X28.792 Y29.928 Z-1.500 I-0.247 J0.428 F250.000 
G1 X28.792 Y29.928 Z-2.000 F150.000 
G2 X28.913 Y30.026 Z-2.000 I0.369 J-0.330 F250.000 
G2 X29.407 Y29.170 Z-2.000 I0.247 J-0.428 F250.000 
G2 X28.792 Y29.928 Z-2.000 I-0.247 J0.428 F250.000 
G1 X28.792 Y29.928 Z-2.500 F150.000 
G2 X28.913 Y30.026 Z-2.500 I0.369 J-0.330 F250.000 
G2 X29.407 Y29.170 Z-2.500 I0.247 J-0.428 F250.000 
G2 X28.792 Y29.928 Z-2.500 I-0.247 J0.428 F250.000 
G1 X28.792 Y29.928 Z-3.000 F150.000 
G2 X28.913 Y30.026 Z-3.000 I0.369 J-0.330 F250.000 
G2 X29.407 Y29.170 Z-3.000 I0.247 J-0.428 F250.000 
G2 X28.792 Y29.928 Z-3.000 I-0.247 J0.428 F250.000 
G1 X28.792 Y29.928 Z-3.500 F150.000 
G2 X28.913 Y30.026 Z-3.500 I0.369 J-0.330 F250.000 
G2 X29.407 Y29.170 Z-3.500 I0.247 J-0.428 F250.000 
G2 X28.792 Y29.928 Z-3.500 I-0.247 J0.428 F250.000 
G1 X28.792 Y29.928 Z-4.000 F150.000 
G2 X28.913 Y30.026 Z-4.000 I0.369 J-0.330 F250.000 
G2 X29.407 Y29.170 Z-4.000 I0.247 J-0.428 F250.000 
G2 X28.792 Y29.928 Z-4.000 I-0.247 J0.428 F250.000 
G1 X28.792 Y29.928 Z-4.500 F150.000 
G2 X28.913 Y30.026 Z-4.500 I0.369 J-0.330 F250.000 
G2 X29.407 Y29.170 Z-4.500 I0.247 J-0.428 F250.000 
G2 X28.792 Y29.928 Z-4.500 I-0.247 J0.428 F250.000 
G1 X28.792 Y29.928 Z-5.000 F150.000 
G2 X28.913 Y30.026 Z-5.000 I0.369 J-0.330 F250.000 
G2 X29.407 Y29.170 Z-5.000 I0.247 J-0.428 F250.000 
G2 X28.792 Y29.928 Z-5.000 I-0.247 J0.428 F250.000 
G1 X28.792 Y29.928 Z-5.500 F150.000 
G2 X28.913 Y30.026 Z-5.500 I0.369 J-0.330 F250.000 
G2 X29.407 Y29.170 Z-5.500 I0.247 J-0.428 F250.000 
G2 X28.792 Y29.928 Z-5.500 I-0.247 J0.428 F250.000 
G1 X28.792 Y29.928 Z-6.000 F150.000 
G2 X28.913 Y30.026 Z-6.000 I0.369 J-0.330 F250.000 
G2 X29.407 Y29.170 Z-6.000 I0.247 J-0.428 F250.000 
G2 X28.792 Y29.928 Z-6.000 I-0.247 J0.428 F250.000 
G1 X28.792 Y29.928 Z-6.500 F150.000 
G2 X28.913 Y30.026 Z-6.500 I0.369 J-0.330 F250.000 
G2 X29.407 Y29.170 Z-6.500 I0.247 J-0.428 F250.000 
G2 X28.792 Y29.928 Z-6.500 I-0.247 J0.428 F250.000 
G1 X28.792 Y29.928 Z-7.000 F150.000 
G2 X28.913 Y30.026 Z-7.000 I0.369 J-0.330 F250.000 
G2 X29.407 Y29.170 Z-7.000 I0.247 J-0.428 F250.000 
G2 X28.792 Y29.928 Z-7.000 I-0.247 J0.428 F250.000 
G1 X28.792 Y29.928 Z-7.500 F150.000 
G2 X28.913 Y30.026 Z-7.500 I0.369 J-0.330 F250.000 
G2 X29.407 Y29.170 Z-7.500 I0.247 J-0.428 F250.000 
G2 X28.792 Y29.928 Z-7.500 I-0.247 J0.428 F250.000 
G1 X28.792 Y29.928 Z-8.000 F150.000 
G2 X28.913 Y30.026 Z-8.000 I0.369 J-0.330 F250.000 
G2 X29.407 Y29.170 Z-8.000 I0.247 J-0.428 F250.000 
G2 X28.792 Y29.928 Z-8.000 I-0.247 J0.428 F250.000 
G1 X28.792 Y29.928 Z-8.500 F150.000 
G2 X28.913 Y30.026 Z-8.500 I0.369 J-0.330 F250.000 
G2 X29.407 Y29.170 Z-8.500 I0.247 J-0.428 F250.000 
G2 X28.792 Y29.928 Z-8.500 I-0.247 J0.428 F250.000 
G1 X28.792 Y29.928 Z-8.800 F150.000 
G2 X28.913 Y30.026 Z-8.800 I0.369 J-0.330 F250.000 
G2 X29.407 Y29.170 Z-8.800 I0.247 J-0.428 F250.000 
G2 X28.792 Y29.928 Z-8.800 I-0.247 J0.428 F250.000 
G0 Z5.000 
G0 Z5.000 
G0 X28.792 Y29.928 
G0 X31.903 Y24.824 
G0 X31.903 Y24.824 Z3.000 
G1 X31.903 Y24.824 Z-0.500 F150.000 
G2 X31.913 Y24.830 Z-0.500 I0.257 J-0.422 F250.000 
G2 X32.407 Y23.974 Z-0.500 I0.247 J-0.428 F250.000 
G2 X31.903 Y24.824 Z-0.500 I-0.247 J0.428 F250.000 
G1 X31.903 Y24.824 Z-1.000 F150.000 
G2 X31.913 Y24.830 Z-1.000 I0.257 J-0.422 F250.000 
G2 X32.407 Y23.974 Z-1.000 I0.247 J-0.428 F250.000 
G2 X31.903 Y24.824 Z-1.000 I-0.247 J0.428 F250.000 
G1 X31.903 Y24.824 Z-1.500 F150.000 
G2 X31.913 Y24.830 Z-1.500 I0.257 J-0.422 F250.000 
G2 X32.407 Y23.974 Z-1.500 I0.247 J-0.428 F250.000 
G2 X31.903 Y24.824 Z-1.500 I-0.247 J0.428 F250.000 
G1 X31.903 Y24.824 Z-2.000 F150.000 
G2 X31.913 Y24.830 Z-2.000 I0.257 J-0.422 F250.000 
G2 X32.407 Y23.974 Z-2.000 I0.247 J-0.428 F250.000 
G2 X31.903 Y24.824 Z-2.000 I-0.247 J0.428 F250.000 
G1 X31.903 Y24.824 Z-2.500 F150.000 
G2 X31.913 Y24.830 Z-2.500 I0.257 J-0.422 F250.000 
G2 X32.407 Y23.974 Z-2.500 I0.247 J-0.428 F250.000 
G2 X31.903 Y24.824 Z-2.500 I-0.247 J0.428 F250.000 
G1 X31.903 Y24.824 Z-3.000 F150.000 
G2 X31.913 Y24.830 Z-3.000 I0.257 J-0.422 F250.000 
G2 X32.407 Y23.974 Z-3.000 I0.247 J-0.428 F250.000 
G2 X31.903 Y24.824 Z-3.000 I-0.247 J0.428 F250.000 
G1 X31.903 Y24.824 Z-3.500 F150.000 
G2 X31.913 Y24.830 Z-3.500 I0.257 J-0.422 F250.000 
G2 X32.407 Y23.974 Z-3.500 I0.247 J-0.428 F250.000 
G2 X31.903 Y24.824 Z-3.500 I-0.247 J0.428 F250.000 
G1 X31.903 Y24.824 Z-4.000 F150.000 
G2 X31.913 Y24.830 Z-4.000 I0.257 J-0.422 F250.000 
G2 X32.407 Y23.974 Z-4.000 I0.247 J-0.428 F250.000 
G2 X31.903 Y24.824 Z-4.000 I-0.247 J0.428 F250.000 
G1 X31.903 Y24.824 Z-4.500 F150.000 
G2 X31.913 Y24.830 Z-4.500 I0.257 J-0.422 F250.000 
G2 X32.407 Y23.974 Z-4.500 I0.247 J-0.428 F250.000 
G2 X31.903 Y24.824 Z-4.500 I-0.247 J0.428 F250.000 
G1 X31.903 Y24.824 Z-5.000 F150.000 
G2 X31.913 Y24.830 Z-5.000 I0.257 J-0.422 F250.000 
G2 X32.407 Y23.974 Z-5.000 I0.247 J-0.428 F250.000 
G2 X31.903 Y24.824 Z-5.000 I-0.247 J0.428 F250.000 
G1 X31.903 Y24.824 Z-5.500 F150.000 
G2 X31.913 Y24.830 Z-5.500 I0.257 J-0.422 F250.000 
G2 X32.407 Y23.974 Z-5.500 I0.247 J-0.428 F250.000 
G2 X31.903 Y24.824 Z-5.500 I-0.247 J0.428 F250.000 
G1 X31.903 Y24.824 Z-6.000 F150.000 
G2 X31.913 Y24.830 Z-6.000 I0.257 J-0.422 F250.000 
G2 X32.407 Y23.974 Z-6.000 I0.247 J-0.428 F250.000 
G2 X31.903 Y24.824 Z-6.000 I-0.247 J0.428 F250.000 
G1 X31.903 Y24.824 Z-6.500 F150.000 
G2 X31.913 Y24.830 Z-6.500 I0.257 J-0.422 F250.000 
G2 X32.407 Y23.974 Z-6.500 I0.247 J-0.428 F250.000 
G2 X31.903 Y24.824 Z-6.500 I-0.247 J0.428 F250.000 
G1 X31.903 Y24.824 Z-7.000 F150.000 
G2 X31.913 Y24.830 Z-7.000 I0.257 J-0.422 F250.000 
G2 X32.407 Y23.974 Z-7.000 I0.247 J-0.428 F250.000 
G2 X31.903 Y24.824 Z-7.000 I-0.247 J0.428 F250.000 
G1 X31.903 Y24.824 Z-7.500 F150.000 
G2 X31.913 Y24.830 Z-7.500 I0.257 J-0.422 F250.000 
G2 X32.407 Y23.974 Z-7.500 I0.247 J-0.428 F250.000 
G2 X31.903 Y24.824 Z-7.500 I-0.247 J0.428 F250.000 
G1 X31.903 Y24.824 Z-8.000 F150.000 
G2 X31.913 Y24.830 Z-8.000 I0.257 J-0.422 F250.000 
G2 X32.407 Y23.974 Z-8.000 I0.247 J-0.428 F250.000 
G2 X31.903 Y24.824 Z-8.000 I-0.247 J0.428 F250.000 
G1 X31.903 Y24.824 Z-8.500 F150.000 
G2 X31.913 Y24.830 Z-8.500 I0.257 J-0.422 F250.000 
G2 X32.407 Y23.974 Z-8.500 I0.247 J-0.428 F250.000 
G2 X31.903 Y24.824 Z-8.500 I-0.247 J0.428 F250.000 
G1 X31.903 Y24.824 Z-8.800 F150.000 
G2 X31.913 Y24.830 Z-8.800 I0.257 J-0.422 F250.000 
G2 X32.407 Y23.974 Z-8.800 I0.247 J-0.428 F250.000 
G2 X31.903 Y24.824 Z-8.800 I-0.247 J0.428 F250.000 
G0 Z5.000 
G0 Z5.000 
G0 X31.903 Y24.824 
G0 X34.777 Y15.214 
G0 X34.777 Y15.214 Z3.000 
G1 X34.777 Y15.214 Z-0.500 F150.000 
G2 X35.263 Y13.806 Z-0.500 I0.214 J-0.714 F250.000 
G2 X34.718 Y15.194 Z-0.500 I-0.272 J0.694 F250.000 
G2 X34.777 Y15.214 Z-0.500 I0.272 J-0.694 F250.000 
G1 X34.777 Y15.214 Z-1.000 F150.000 
G2 X35.263 Y13.806 Z-1.000 I0.214 J-0.714 F250.000 
G2 X34.718 Y15.194 Z-1.000 I-0.272 J0.694 F250.000 
G2 X34.777 Y15.214 Z-1.000 I0.272 J-0.694 F250.000 
G1 X34.777 Y15.214 Z-1.500 F150.000 
G2 X35.263 Y13.806 Z-1.500 I0.214 J-0.714 F250.000 
G2 X34.718 Y15.194 Z-1.500 I-0.272 J0.694 F250.000 
G2 X34.777 Y15.214 Z-1.500 I0.272 J-0.694 F250.000 
G1 X34.777 Y15.214 Z-2.000 F150.000 
G2 X35.263 Y13.806 Z-2.000 I0.214 J-0.714 F250.000 
G2 X34.718 Y15.194 Z-2.000 I-0.272 J0.694 F250.000 
G2 X34.777 Y15.214 Z-2.000 I0.272 J-0.694 F250.000 
G1 X34.777 Y15.214 Z-2.500 F150.000 
G2 X35.263 Y13.806 Z-2.500 I0.214 J-0.714 F250.000 
G2 X34.718 Y15.194 Z-2.500 I-0.272 J0.694 F250.000 
G2 X34.777 Y15.214 Z-2.500 I0.272 J-0.694 F250.000 
G1 X34.777 Y15.214 Z-3.000 F150.000 
G2 X35.263 Y13.806 Z-3.000 I0.214 J-0.714 F250.000 
G2 X34.718 Y15.194 Z-3.000 I-0.272 J0.694 F250.000 
G2 X34.777 Y15.214 Z-3.000 I0.272 J-0.694 F250.000 
G1 X34.777 Y15.214 Z-3.500 F150.000 
G2 X35.263 Y13.806 Z-3.500 I0.214 J-0.714 F250.000 
G2 X34.718 Y15.194 Z-3.500 I-0.272 J0.694 F250.000 
G2 X34.777 Y15.214 Z-3.500 I0.272 J-0.694 F250.000 
G1 X34.777 Y15.214 Z-4.000 F150.000 
G2 X35.263 Y13.806 Z-4.000 I0.214 J-0.714 F250.000 
G2 X34.718 Y15.194 Z-4.000 I-0.272 J0.694 F250.000 
G2 X34.777 Y15.214 Z-4.000 I0.272 J-0.694 F250.000 
G1 X34.777 Y15.214 Z-4.500 F150.000 
G2 X35.263 Y13.806 Z-4.500 I0.214 J-0.714 F250.000 
G2 X34.718 Y15.194 Z-4.500 I-0.272 J0.694 F250.000 
G2 X34.777 Y15.214 Z-4.500 I0.272 J-0.694 F250.000 
G1 X34.777 Y15.214 Z-5.000 F150.000 
G2 X35.263 Y13.806 Z-5.000 I0.214 J-0.714 F250.000 
G2 X34.718 Y15.194 Z-5.000 I-0.272 J0.694 F250.000 
G2 X34.777 Y15.214 Z-5.000 I0.272 J-0.694 F250.000 
G1 X34.777 Y15.214 Z-5.500 F150.000 
G2 X35.263 Y13.806 Z-5.500 I0.214 J-0.714 F250.000 
G2 X34.718 Y15.194 Z-5.500 I-0.272 J0.694 F250.000 
G2 X34.777 Y15.214 Z-5.500 I0.272 J-0.694 F250.000 
G1 X34.777 Y15.214 Z-6.000 F150.000 
G2 X35.263 Y13.806 Z-6.000 I0.214 J-0.714 F250.000 
G2 X34.718 Y15.194 Z-6.000 I-0.272 J0.694 F250.000 
G2 X34.777 Y15.214 Z-6.000 I0.272 J-0.694 F250.000 
G1 X34.777 Y15.214 Z-6.500 F150.000 
G2 X35.263 Y13.806 Z-6.500 I0.214 J-0.714 F250.000 
G2 X34.718 Y15.194 Z-6.500 I-0.272 J0.694 F250.000 
G2 X34.777 Y15.214 Z-6.500 I0.272 J-0.694 F250.000 
G1 X34.777 Y15.214 Z-7.000 F150.000 
G2 X35.263 Y13.806 Z-7.000 I0.214 J-0.714 F250.000 
G2 X34.718 Y15.194 Z-7.000 I-0.272 J0.694 F250.000 
G2 X34.777 Y15.214 Z-7.000 I0.272 J-0.694 F250.000 
G1 X34.777 Y15.214 Z-7.500 F150.000 
G2 X35.263 Y13.806 Z-7.500 I0.214 J-0.714 F250.000 
G2 X34.718 Y15.194 Z-7.500 I-0.272 J0.694 F250.000 
G2 X34.777 Y15.214 Z-7.500 I0.272 J-0.694 F250.000 
G1 X34.777 Y15.214 Z-8.000 F150.000 
G2 X35.263 Y13.806 Z-8.000 I0.214 J-0.714 F250.000 
G2 X34.718 Y15.194 Z-8.000 I-0.272 J0.694 F250.000 
G2 X34.777 Y15.214 Z-8.000 I0.272 J-0.694 F250.000 
G1 X34.777 Y15.214 Z-8.500 F150.000 
G2 X35.263 Y13.806 Z-8.500 I0.214 J-0.714 F250.000 
G2 X34.718 Y15.194 Z-8.500 I-0.272 J0.694 F250.000 
G2 X34.777 Y15.214 Z-8.500 I0.272 J-0.694 F250.000 
G1 X34.777 Y15.214 Z-8.800 F150.000 
G2 X35.263 Y13.806 Z-8.800 I0.214 J-0.714 F250.000 
G2 X34.718 Y15.194 Z-8.800 I-0.272 J0.694 F250.000 
G2 X34.777 Y15.214 Z-8.800 I0.272 J-0.694 F250.000 
G0 Z5.000 
G0 Z5.000 
G0 X34.777 Y15.214 
G0 X25.470 Y12.155 
G0 X25.470 Y12.155 Z3.000 
G1 X25.470 Y12.155 Z-0.500 F150.000 
G2 X25.168 Y11.534 Z-0.500 I-0.470 J-0.155 F250.000 
G2 X24.534 Y11.832 Z-0.500 I-0.168 J0.466 F250.000 
G2 X24.832 Y12.466 Z-0.500 I0.466 J0.168 F250.000 
G2 X25.470 Y12.155 Z-0.500 I0.168 J-0.466 F250.000 
G1 X25.470 Y12.155 Z-1.000 F150.000 
G2 X25.168 Y11.534 Z-1.000 I-0.470 J-0.155 F250.000 
G2 X24.534 Y11.832 Z-1.000 I-0.168 J0.466 F250.000 
G2 X24.832 Y12.466 Z-1.000 I0.466 J0.168 F250.000 
G2 X25.470 Y12.155 Z-1.000 I0.168 J-0.466 F250.000 
G1 X25.470 Y12.155 Z-1.500 F150.000 
G2 X25.168 Y11.534 Z-1.500 I-0.470 J-0.155 F250.000 
G2 X24.534 Y11.832 Z-1.500 I-0.168 J0.466 F250.000 
G2 X24.832 Y12.466 Z-1.500 I0.466 J0.168 F250.000 
G2 X25.470 Y12.155 Z-1.500 I0.168 J-0.466 F250.000 
G1 X25.470 Y12.155 Z-2.000 F150.000 
G2 X25.168 Y11.534 Z-2.000 I-0.470 J-0.155 F250.000 
G2 X24.534 Y11.832 Z-2.000 I-0.168 J0.466 F250.000 
G2 X24.832 Y12.466 Z-2.000 I0.466 J0.168 F250.000 
G2 X25.470 Y12.155 Z-2.000 I0.168 J-0.466 F250.000 
G1 X25.470 Y12.155 Z-2.500 F150.000 
G2 X25.168 Y11.534 Z-2.500 I-0.470 J-0.155 F250.000 
G2 X24.534 Y11.832 Z-2.500 I-0.168 J0.466 F250.000 
G2 X24.832 Y12.466 Z-2.500 I0.466 J0.168 F250.000 
G2 X25.470 Y12.155 Z-2.500 I0.168 J-0.466 F250.000 
G1 X25.470 Y12.155 Z-3.000 F150.000 
G2 X25.168 Y11.534 Z-3.000 I-0.470 J-0.155 F250.000 
G2 X24.534 Y11.832 Z-3.000 I-0.168 J0.466 F250.000 
G2 X24.832 Y12.466 Z-3.000 I0.466 J0.168 F250.000 
G2 X25.470 Y12.155 Z-3.000 I0.168 J-0.466 F250.000 
G1 X25.470 Y12.155 Z-3.500 F150.000 
G2 X25.168 Y11.534 Z-3.500 I-0.470 J-0.155 F250.000 
G2 X24.534 Y11.832 Z-3.500 I-0.168 J0.466 F250.000 
G2 X24.832 Y12.466 Z-3.500 I0.466 J0.168 F250.000 
G2 X25.470 Y12.155 Z-3.500 I0.168 J-0.466 F250.000 
G1 X25.470 Y12.155 Z-4.000 F150.000 
G2 X25.168 Y11.534 Z-4.000 I-0.470 J-0.155 F250.000 
G2 X24.534 Y11.832 Z-4.000 I-0.168 J0.466 F250.000 
G2 X24.832 Y12.466 Z-4.000 I0.466 J0.168 F250.000 
G2 X25.470 Y12.155 Z-4.000 I0.168 J-0.466 F250.000 
G1 X25.470 Y12.155 Z-4.500 F150.000 
G2 X25.168 Y11.534 Z-4.500 I-0.470 J-0.155 F250.000 
G2 X24.534 Y11.832 Z-4.500 I-0.168 J0.466 F250.000 
G2 X24.832 Y12.466 Z-4.500 I0.466 J0.168 F250.000 
G2 X25.470 Y12.155 Z-4.500 I0.168 J-0.466 F250.000 
G1 X25.470 Y12.155 Z-5.000 F150.000 
G2 X25.168 Y11.534 Z-5.000 I-0.470 J-0.155 F250.000 
G2 X24.534 Y11.832 Z-5.000 I-0.168 J0.466 F250.000 
G2 X24.832 Y12.466 Z-5.000 I0.466 J0.168 F250.000 
G2 X25.470 Y12.155 Z-5.000 I0.168 J-0.466 F250.000 
G1 X25.470 Y12.155 Z-5.500 F150.000 
G2 X25.168 Y11.534 Z-5.500 I-0.470 J-0.155 F250.000 
G2 X24.534 Y11.832 Z-5.500 I-0.168 J0.466 F250.000 
G2 X24.832 Y12.466 Z-5.500 I0.466 J0.168 F250.000 
G2 X25.470 Y12.155 Z-5.500 I0.168 J-0.466 F250.000 
G1 X25.470 Y12.155 Z-6.000 F150.000 
G2 X25.168 Y11.534 Z-6.000 I-0.470 J-0.155 F250.000 
G2 X24.534 Y11.832 Z-6.000 I-0.168 J0.466 F250.000 
G2 X24.832 Y12.466 Z-6.000 I0.466 J0.168 F250.000 
G2 X25.470 Y12.155 Z-6.000 I0.168 J-0.466 F250.000 
G1 X25.470 Y12.155 Z-6.500 F150.000 
G2 X25.168 Y11.534 Z-6.500 I-0.470 J-0.155 F250.000 
G2 X24.534 Y11.832 Z-6.500 I-0.168 J0.466 F250.000 
G2 X24.832 Y12.466 Z-6.500 I0.466 J0.168 F250.000 
G2 X25.470 Y12.155 Z-6.500 I0.168 J-0.466 F250.000 
G1 X25.470 Y12.155 Z-7.000 F150.000 
G2 X25.168 Y11.534 Z-7.000 I-0.470 J-0.155 F250.000 
G2 X24.534 Y11.832 Z-7.000 I-0.168 J0.466 F250.000 
G2 X24.832 Y12.466 Z-7.000 I0.466 J0.168 F250.000 
G2 X25.470 Y12.155 Z-7.000 I0.168 J-0.466 F250.000 
G1 X25.470 Y12.155 Z-7.500 F150.000 
G2 X25.168 Y11.534 Z-7.500 I-0.470 J-0.155 F250.000 
G2 X24.534 Y11.832 Z-7.500 I-0.168 J0.466 F250.000 
G2 X24.832 Y12.466 Z-7.500 I0.466 J0.168 F250.000 
G2 X25.470 Y12.155 Z-7.500 I0.168 J-0.466 F250.000 
G1 X25.470 Y12.155 Z-8.000 F150.000 
G2 X25.168 Y11.534 Z-8.000 I-0.470 J-0.155 F250.000 
G2 X24.534 Y11.832 Z-8.000 I-0.168 J0.466 F250.000 
G2 X24.832 Y12.466 Z-8.000 I0.466 J0.168 F250.000 
G2 X25.470 Y12.155 Z-8.000 I0.168 J-0.466 F250.000 
G1 X25.470 Y12.155 Z-8.500 F150.000 
G2 X25.168 Y11.534 Z-8.500 I-0.470 J-0.155 F250.000 
G2 X24.534 Y11.832 Z-8.500 I-0.168 J0.466 F250.000 
G2 X24.832 Y12.466 Z-8.500 I0.466 J0.168 F250.000 
G2 X25.470 Y12.155 Z-8.500 I0.168 J-0.466 F250.000 
G1 X25.470 Y12.155 Z-8.800 F150.000 
G2 X25.168 Y11.534 Z-8.800 I-0.470 J-0.155 F250.000 
G2 X24.534 Y11.832 Z-8.800 I-0.168 J0.466 F250.000 
G2 X24.832 Y12.466 Z-8.800 I0.466 J0.168 F250.000 
G2 X25.470 Y12.155 Z-8.800 I0.168 J-0.466 F250.000 
G0 Z5.000 
G0 Z5.000 
G0 X25.470 Y12.155 
G0 X19.495 Y12.012 
G0 X19.495 Y12.012 Z3.000 
G1 X19.495 Y12.012 Z-0.500 F150.000 
G2 X19.168 Y11.534 Z-0.500 I-0.495 J-0.012 F250.000 
G2 X18.832 Y12.466 Z-0.500 I-0.168 J0.466 F250.000 
G2 X19.495 Y12.012 Z-0.500 I0.168 J-0.466 F250.000 
G1 X19.495 Y12.012 Z-1.000 F150.000 
G2 X19.168 Y11.534 Z-1.000 I-0.495 J-0.012 F250.000 
G2 X18.832 Y12.466 Z-1.000 I-0.168 J0.466 F250.000 
G2 X19.495 Y12.012 Z-1.000 I0.168 J-0.466 F250.000 
G1 X19.495 Y12.012 Z-1.500 F150.000 
G2 X19.168 Y11.534 Z-1.500 I-0.495 J-0.012 F250.000 
G2 X18.832 Y12.466 Z-1.500 I-0.168 J0.466 F250.000 
G2 X19.495 Y12.012 Z-1.500 I0.168 J-0.466 F250.000 
G1 X19.495 Y12.012 Z-2.000 F150.000 
G2 X19.168 Y11.534 Z-2.000 I-0.495 J-0.012 F250.000 
G2 X18.832 Y12.466 Z-2.000 I-0.168 J0.466 F250.000 
G2 X19.495 Y12.012 Z-2.000 I0.168 J-0.466 F250.000 
G1 X19.495 Y12.012 Z-2.500 F150.000 
G2 X19.168 Y11.534 Z-2.500 I-0.495 J-0.012 F250.000 
G2 X18.832 Y12.466 Z-2.500 I-0.168 J0.466 F250.000 
G2 X19.495 Y12.012 Z-2.500 I0.168 J-0.466 F250.000 
G1 X19.495 Y12.012 Z-3.000 F150.000 
G2 X19.168 Y11.534 Z-3.000 I-0.495 J-0.012 F250.000 
G2 X18.832 Y12.466 Z-3.000 I-0.168 J0.466 F250.000 
G2 X19.495 Y12.012 Z-3.000 I0.168 J-0.466 F250.000 
G1 X19.495 Y12.012 Z-3.500 F150.000 
G2 X19.168 Y11.534 Z-3.500 I-0.495 J-0.012 F250.000 
G2 X18.832 Y12.466 Z-3.500 I-0.168 J0.466 F250.000 
G2 X19.495 Y12.012 Z-3.500 I0.168 J-0.466 F250.000 
G1 X19.495 Y12.012 Z-4.000 F150.000 
G2 X19.168 Y11.534 Z-4.000 I-0.495 J-0.012 F250.000 
G2 X18.832 Y12.466 Z-4.000 I-0.168 J0.466 F250.000 
G2 X19.495 Y12.012 Z-4.000 I0.168 J-0.466 F250.000 
G1 X19.495 Y12.012 Z-4.500 F150.000 
G2 X19.168 Y11.534 Z-4.500 I-0.495 J-0.012 F250.000 
G2 X18.832 Y12.466 Z-4.500 I-0.168 J0.466 F250.000 
G2 X19.495 Y12.012 Z-4.500 I0.168 J-0.466 F250.000 
G1 X19.495 Y12.012 Z-5.000 F150.000 
G2 X19.168 Y11.534 Z-5.000 I-0.495 J-0.012 F250.000 
G2 X18.832 Y12.466 Z-5.000 I-0.168 J0.466 F250.000 
G2 X19.495 Y12.012 Z-5.000 I0.168 J-0.466 F250.000 
G1 X19.495 Y12.012 Z-5.500 F150.000 
G2 X19.168 Y11.534 Z-5.500 I-0.495 J-0.012 F250.000 
G2 X18.832 Y12.466 Z-5.500 I-0.168 J0.466 F250.000 
G2 X19.495 Y12.012 Z-5.500 I0.168 J-0.466 F250.000 
G1 X19.495 Y12.012 Z-6.000 F150.000 
G2 X19.168 Y11.534 Z-6.000 I-0.495 J-0.012 F250.000 
G2 X18.832 Y12.466 Z-6.000 I-0.168 J0.466 F250.000 
G2 X19.495 Y12.012 Z-6.000 I0.168 J-0.466 F250.000 
G1 X19.495 Y12.012 Z-6.500 F150.000 
G2 X19.168 Y11.534 Z-6.500 I-0.495 J-0.012 F250.000 
G2 X18.832 Y12.466 Z-6.500 I-0.168 J0.466 F250.000 
G2 X19.495 Y12.012 Z-6.500 I0.168 J-0.466 F250.000 
G1 X19.495 Y12.012 Z-7.000 F150.000 
G2 X19.168 Y11.534 Z-7.000 I-0.495 J-0.012 F250.000 
G2 X18.832 Y12.466 Z-7.000 I-0.168 J0.466 F250.000 
G2 X19.495 Y12.012 Z-7.000 I0.168 J-0.466 F250.000 
G1 X19.495 Y12.012 Z-7.500 F150.000 
G2 X19.168 Y11.534 Z-7.500 I-0.495 J-0.012 F250.000 
G2 X18.832 Y12.466 Z-7.500 I-0.168 J0.466 F250.000 
G2 X19.495 Y12.012 Z-7.500 I0.168 J-0.466 F250.000 
G1 X19.495 Y12.012 Z-8.000 F150.000 
G2 X19.168 Y11.534 Z-8.000 I-0.495 J-0.012 F250.000 
G2 X18.832 Y12.466 Z-8.000 I-0.168 J0.466 F250.000 
G2 X19.495 Y12.012 Z-8.000 I0.168 J-0.466 F250.000 
G1 X19.495 Y12.012 Z-8.500 F150.000 
G2 X19.168 Y11.534 Z-8.500 I-0.495 J-0.012 F250.000 
G2 X18.832 Y12.466 Z-8.500 I-0.168 J0.466 F250.000 
G2 X19.495 Y12.012 Z-8.500 I0.168 J-0.466 F250.000 
G1 X19.495 Y12.012 Z-8.800 F150.000 
G2 X19.168 Y11.534 Z-8.800 I-0.495 J-0.012 F250.000 
G2 X18.832 Y12.466 Z-8.800 I-0.168 J0.466 F250.000 
G2 X19.495 Y12.012 Z-8.800 I0.168 J-0.466 F250.000 
G0 Z5.000 
G0 Z5.000 
(finish operation: NarrowHoles)
(begin operation: TC: 3.175mm_endmill)
(machine units: mm/min)
(TC: 3.175mm_endmill) 
M5
M6 T1 
G43 H1 
M3 S10000 
(finish operation: TC: 3.175mm_endmill)
(begin operation: MainPocket)
(machine units: mm/min)
(MainPocket) 
G0 Z5.000 
G0 X30.071 Y30.071 
G0 Z3.000 
G1 X30.071 Y30.071 Z-1.000 F120.000 
G2 X22.437 Y10.595 Z-1.000 I-8.071 J-8.071 F400.000 
G2 X21.563 Y33.405 Z-1.000 I-0.437 J11.405 F400.000 
G2 X30.071 Y30.071 Z-1.000 I0.437 J-11.405 F400.000 
G0 Z5.000 
G0 X30.224 Y14.085 Z5.000 
G0 X30.224 Y14.085 Z3.000 
G1 X30.224 Y14.085 Z-1.000 F120.000 
G3 X33.371 Y21.043 Z-1.000 I-8.199 J7.899 F400.000 
G1 X22.963 Y10.635 Z-1.000 F400.000 
G2 X19.410 Y10.893 Z-1.000 I-1.011 J10.684 F400.000 
G1 X33.114 Y24.597 Z-1.000 F400.000 
G3 X32.068 Y27.361 Z-1.000 I-10.584 J-2.428 F400.000 
G1 X16.636 Y11.929 Z-1.000 F400.000 
G2 X14.390 Y13.494 Z-1.000 I5.211 J9.869 F400.000 
G1 X30.500 Y29.604 Z-1.000 F400.000 
G3 X28.475 Y31.390 Z-1.000 I-7.806 J-6.813 F400.000 
G1 X12.607 Y15.522 Z-1.000 F400.000 
G2 X11.306 Y18.031 Z-1.000 I8.740 J6.121 F400.000 
G1 X25.971 Y32.696 Z-1.000 F400.000 
G3 X22.839 Y33.375 Z-1.000 I-3.821 J-10.075 F400.000 
G1 X10.618 Y21.154 Z-1.000 F400.000 
G2 X11.129 Y25.476 Z-1.000 I11.317 J0.853 F400.000 
G1 X18.513 Y32.860 Z-1.000 F400.000 
G3 X11.129 Y25.476 Z-1.000 I3.452 J-10.836 F400.000 
G1 X11.129 Y25.476 Z-2.000 F120.000 
G2 X18.513 Y32.860 Z-2.000 I10.836 J-3.452 F400.000 
G1 X11.129 Y25.476 Z-2.000 F400.000 
G3 X10.618 Y21.154 Z-2.000 I10.806 J-3.469 F400.000 
G1 X22.839 Y33.375 Z-2.000 F400.000 
G2 X25.971 Y32.696 Z-2.000 I-0.689 J-10.754 F400.000 
G1 X11.306 Y18.031 Z-2.000 F400.000 
G3 X12.607 Y15.522 Z-2.000 I10.040 J3.611 F400.000 
G1 X28.475 Y31.390 Z-2.000 F400.000 
G2 X30.500 Y29.604 Z-2.000 I-5.781 J-8.599 F400.000 
G1 X14.390 Y13.494 Z-2.000 F400.000 
G3 X16.636 Y11.929 Z-2.000 I7.456 J8.304 F400.000 
G1 X32.068 Y27.361 Z-2.000 F400.000 
G2 X33.114 Y24.597 Z-2.000 I-9.537 J-5.192 F400.000 
G1 X19.410 Y10.893 Z-2.000 F400.000 
G3 X22.963 Y10.635 Z-2.000 I2.542 J10.427 F400.000 
G1 X33.371 Y21.043 Z-2.000 F400.000 
G2 X30.224 Y14.085 Z-2.000 I-11.346 J0.941 F400.000 
G1 X30.224 Y14.085 Z-2.000 F120.000 
G2 X22.437 Y10.595 Z-2.000 I-8.224 J7.915 F400.000 
G2 X21.563 Y33.405 Z-2.000 I-0.437 J11.405 F400.000 
G2 X30.224 Y14.085 Z-2.000 I0.437 J-11.405 F400.000 
G1 X30.224 Y14.085 Z-3.000 F120.000 
G2 X22.437 Y10.595 Z-3.000 I-8.224 J7.915 F400.000 
G2 X21.563 Y33.405 Z-3.000 I-0.437 J11.405 F400.000 
G2 X30.224 Y14.085 Z-3.000 I0.437 J-11.405 F400.000 
G1 X30.224 Y14.085 Z-3.000 F120.000 
G3 X33.371 Y21.043 Z-3.000 I-8.199 J7.899 F400.000 
G1 X22.963 Y10.635 Z-3.000 F400.000 
G2 X19.410 Y10.893 Z-3.000 I-1.011 J10.684 F400.000 
G1 X33.114 Y24.597 Z-3.000 F400.000 
G3 X32.068 Y27.361 Z-3.000 I-10.584 J-2.428 F400.000 
G1 X16.636 Y11.929 Z-3.000 F400.000 
G2 X14.390 Y13.494 Z-3.000 I5.211 J9.869 F400.000 
G1 X30.500 Y29.604 Z-3.000 F400.000 
G3 X28.475 Y31.390 Z-3.000 I-7.806 J-6.813 F400.000 
G1 X12.607 Y15.522 Z-3.000 F400.000 
G2 X11.306 Y18.031 Z-3.000 I8.740 J6.121 F400.000 
G1 X25.971 Y32.696 Z-3.000 F400.000 
G3 X22.839 Y33.375 Z-3.000 I-3.821 J-10.075 F400.000 
G1 X10.618 Y21.154 Z-3.000 F400.000 
G2 X11.129 Y25.476 Z-3.000 I11.317 J0.853 F400.000 
G1 X18.513 Y32.860 Z-3.000 F400.000 
G3 X11.129 Y25.476 Z-3.000 I3.452 J-10.836 F400.000 
G1 X11.129 Y25.476 Z-4.000 F120.000 
G2 X18.513 Y32.860 Z-4.000 I10.836 J-3.452 F400.000 
G1 X11.129 Y25.476 Z-4.000 F400.000 
G3 X10.618 Y21.154 Z-4.000 I10.806 J-3.469 F400.000 
G1 X22.839 Y33.375 Z-4.000 F400.000 
G2 X25.971 Y32.696 Z-4.000 I-0.689 J-10.754 F400.000 
G1 X11.306 Y18.031 Z-4.000 F400.000 
G3 X12.607 Y15.522 Z-4.000 I10.040 J3.611 F400.000 
G1 X28.475 Y31.390 Z-4.000 F400.000 
G2 X30.500 Y29.604 Z-4.000 I-5.781 J-8.599 F400.000 
G1 X14.390 Y13.494 Z-4.000 F400.000 
G3 X16.636 Y11.929 Z-4.000 I7.456 J8.304 F400.000 
G1 X32.068 Y27.361 Z-4.000 F400.000 
G2 X33.114 Y24.597 Z-4.000 I-9.537 J-5.192 F400.000 
G1 X19.410 Y10.893 Z-4.000 F400.000 
G3 X22.963 Y10.635 Z-4.000 I2.542 J10.427 F400.000 
G1 X33.371 Y21.043 Z-4.000 F400.000 
G2 X30.224 Y14.085 Z-4.000 I-11.346 J0.941 F400.000 
G1 X30.224 Y14.085 Z-4.000 F120.000 
G2 X22.437 Y10.595 Z-4.000 I-8.224 J7.915 F400.000 
G2 X21.563 Y33.405 Z-4.000 I-0.437 J11.405 F400.000 
G2 X30.224 Y14.085 Z-4.000 I0.437 J-11.405 F400.000 
G1 X30.224 Y14.085 Z-5.000 F120.000 
G2 X22.437 Y10.595 Z-5.000 I-8.224 J7.915 F400.000 
G2 X21.563 Y33.405 Z-5.000 I-0.437 J11.405 F400.000 
G2 X30.224 Y14.085 Z-5.000 I0.437 J-11.405 F400.000 
G1 X30.224 Y14.085 Z-5.000 F120.000 
G3 X33.371 Y21.043 Z-5.000 I-8.199 J7.899 F400.000 
G1 X22.963 Y10.635 Z-5.000 F400.000 
G2 X19.410 Y10.893 Z-5.000 I-1.011 J10.684 F400.000 
G1 X33.114 Y24.597 Z-5.000 F400.000 
G3 X32.068 Y27.361 Z-5.000 I-10.584 J-2.428 F400.000 
G1 X16.636 Y11.929 Z-5.000 F400.000 
G2 X14.390 Y13.494 Z-5.000 I5.211 J9.869 F400.000 
G1 X30.500 Y29.604 Z-5.000 F400.000 
G3 X28.475 Y31.390 Z-5.000 I-7.806 J-6.813 F400.000 
G1 X12.607 Y15.522 Z-5.000 F400.000 
G2 X11.306 Y18.031 Z-5.000 I8.740 J6.121 F400.000 
G1 X25.971 Y32.696 Z-5.000 F400.000 
G3 X22.839 Y33.375 Z-5.000 I-3.821 J-10.075 F400.000 
G1 X10.618 Y21.154 Z-5.000 F400.000 
G2 X11.129 Y25.476 Z-5.000 I11.317 J0.853 F400.000 
G1 X18.513 Y32.860 Z-5.000 F400.000 
G3 X11.129 Y25.476 Z-5.000 I3.452 J-10.836 F400.000 
G1 X11.129 Y25.476 Z-5.800 F120.000 
G2 X18.513 Y32.860 Z-5.800 I10.836 J-3.452 F400.000 
G1 X11.129 Y25.476 Z-5.800 F400.000 
G3 X10.618 Y21.154 Z-5.800 I10.806 J-3.469 F400.000 
G1 X22.839 Y33.375 Z-5.800 F400.000 
G2 X25.971 Y32.696 Z-5.800 I-0.689 J-10.754 F400.000 
G1 X11.306 Y18.031 Z-5.800 F400.000 
G3 X12.607 Y15.522 Z-5.800 I10.040 J3.611 F400.000 
G1 X28.475 Y31.390 Z-5.800 F400.000 
G2 X30.500 Y29.604 Z-5.800 I-5.781 J-8.599 F400.000 
G1 X14.390 Y13.494 Z-5.800 F400.000 
G3 X16.636 Y11.929 Z-5.800 I7.456 J8.304 F400.000 
G1 X32.068 Y27.361 Z-5.800 F400.000 
G2 X33.114 Y24.597 Z-5.800 I-9.537 J-5.192 F400.000 
G1 X19.410 Y10.893 Z-5.800 F400.000 
G3 X22.963 Y10.635 Z-5.800 I2.542 J10.427 F400.000 
G1 X33.371 Y21.043 Z-5.800 F400.000 
G2 X30.224 Y14.085 Z-5.800 I-11.346 J0.941 F400.000 
G1 X30.224 Y14.085 Z-5.800 F120.000 
G2 X22.437 Y10.595 Z-5.800 I-8.224 J7.915 F400.000 
G2 X21.563 Y33.405 Z-5.800 I-0.437 J11.405 F400.000 
G2 X30.224 Y14.085 Z-5.800 I0.437 J-11.405 F400.000 
G0 Z5.000 
G0 Z5.000 
(finish operation: MainPocket)
(begin operation: BottomHole)
(machine units: mm/min)
(BottomHole) 
(Compensated Tool Path. Diameter: 3.17) 
G0 Z5.000 
G0 X22.997 Y22.997 
G0 Z3.000 
G1 X22.997 Y22.997 Z-6.800 F120.000 
G2 X22.436 Y20.659 Z-6.800 I-0.997 J-0.997 F400.000 
G2 X20.659 Y21.564 Z-6.800 I-0.436 J1.341 F400.000 
G2 X21.564 Y23.341 Z-6.800 I1.341 J0.436 F400.000 
G2 X22.997 Y22.997 Z-6.800 I0.436 J-1.341 F400.000 
G1 X22.997 Y22.997 Z-7.800 F120.000 
G2 X22.436 Y20.659 Z-7.800 I-0.997 J-0.997 F400.000 
G2 X20.659 Y21.564 Z-7.800 I-0.436 J1.341 F400.000 
G2 X21.564 Y23.341 Z-7.800 I1.341 J0.436 F400.000 
G2 X22.997 Y22.997 Z-7.800 I0.436 J-1.341 F400.000 
G1 X22.997 Y22.997 Z-8.800 F120.000 
G2 X22.436 Y20.659 Z-8.800 I-0.997 J-0.997 F400.000 
G2 X20.659 Y21.564 Z-8.800 I-0.436 J1.341 F400.000 
G2 X21.564 Y23.341 Z-8.800 I1.341 J0.436 F400.000 
G2 X22.997 Y22.997 Z-8.800 I0.436 J-1.341 F400.000 
G0 Z5.000 
G0 Z5.000 
(finish operation: BottomHole)
(begin operation: ExternProfile)
(machine units: mm/min)
G0 Z5.000 
G0 X34.622 Y35.639 Z5.000 
G0 X34.622 Y35.639 Z3.000 
G1 X34.622 Y35.639 Z-1.000 F120.000 
G2 X39.706 Y16.390 Z-1.000 I-12.598 J-13.623 F400.000 
G2 X35.714 Y9.471 Z-1.000 I-4.713 J-1.892 F400.000 
G2 X24.524 Y3.588 Z-1.000 I-13.686 J12.448 F400.000 
G2 X8.288 Y9.471 Z-1.000 I-2.528 J18.367 F400.000 
G2 X4.293 Y16.387 Z-1.000 I0.718 J5.027 F400.000 
G2 X18.005 Y40.139 Z-1.000 I17.682 J5.626 F400.000 
G2 X25.993 Y40.141 Z-1.000 I3.995 J-3.136 F400.000 
G2 X34.622 Y35.639 Z-1.000 I-3.968 J-18.126 F400.000 
G1 X34.622 Y35.639 Z-2.000 F120.000 
G2 X39.706 Y16.390 Z-2.000 I-12.598 J-13.623 F400.000 
G2 X35.714 Y9.471 Z-2.000 I-4.713 J-1.892 F400.000 
G2 X24.524 Y3.588 Z-2.000 I-13.686 J12.448 F400.000 
G2 X8.288 Y9.471 Z-2.000 I-2.528 J18.367 F400.000 
G2 X4.293 Y16.387 Z-2.000 I0.718 J5.027 F400.000 
G2 X18.005 Y40.139 Z-2.000 I17.682 J5.626 F400.000 
G2 X25.993 Y40.141 Z-2.000 I3.995 J-3.136 F400.000 
G2 X34.622 Y35.639 Z-2.000 I-3.968 J-18.126 F400.000 
G1 X34.622 Y35.639 Z-3.000 F120.000 
G2 X39.706 Y16.390 Z-3.000 I-12.598 J-13.623 F400.000 
G2 X35.714 Y9.471 Z-3.000 I-4.713 J-1.892 F400.000 
G2 X24.524 Y3.588 Z-3.000 I-13.686 J12.448 F400.000 
G2 X8.288 Y9.471 Z-3.000 I-2.528 J18.367 F400.000 
G2 X4.293 Y16.387 Z-3.000 I0.718 J5.027 F400.000 
G2 X18.005 Y40.139 Z-3.000 I17.682 J5.626 F400.000 
G2 X25.993 Y40.141 Z-3.000 I3.995 J-3.136 F400.000 
G2 X34.622 Y35.639 Z-3.000 I-3.968 J-18.126 F400.000 
G1 X34.622 Y35.639 Z-4.000 F120.000 
G2 X39.706 Y16.390 Z-4.000 I-12.598 J-13.623 F400.000 
G2 X35.714 Y9.471 Z-4.000 I-4.713 J-1.892 F400.000 
G2 X24.524 Y3.588 Z-4.000 I-13.686 J12.448 F400.000 
G2 X8.288 Y9.471 Z-4.000 I-2.528 J18.367 F400.000 
G2 X4.293 Y16.387 Z-4.000 I0.718 J5.027 F400.000 
G2 X18.005 Y40.139 Z-4.000 I17.682 J5.626 F400.000 
G2 X25.993 Y40.141 Z-4.000 I3.995 J-3.136 F400.000 
G2 X34.622 Y35.639 Z-4.000 I-3.968 J-18.126 F400.000 
G1 X34.622 Y35.639 Z-5.000 F120.000 
G2 X39.706 Y16.390 Z-5.000 I-12.598 J-13.623 F400.000 
G2 X35.714 Y9.471 Z-5.000 I-4.713 J-1.892 F400.000 
G2 X24.524 Y3.588 Z-5.000 I-13.686 J12.448 F400.000 
G2 X8.288 Y9.471 Z-5.000 I-2.528 J18.367 F400.000 
G2 X4.293 Y16.387 Z-5.000 I0.718 J5.027 F400.000 
G2 X18.005 Y40.139 Z-5.000 I17.682 J5.626 F400.000 
G2 X25.993 Y40.141 Z-5.000 I3.995 J-3.136 F400.000 
G2 X34.622 Y35.639 Z-5.000 I-3.968 J-18.126 F400.000 
G1 X34.622 Y35.639 Z-6.000 F120.000 
G2 X39.706 Y16.390 Z-6.000 I-12.598 J-13.623 F400.000 
G2 X35.714 Y9.471 Z-6.000 I-4.713 J-1.892 F400.000 
G2 X24.524 Y3.588 Z-6.000 I-13.686 J12.448 F400.000 
G2 X8.288 Y9.471 Z-6.000 I-2.528 J18.367 F400.000 
G2 X4.293 Y16.387 Z-6.000 I0.718 J5.027 F400.000 
G2 X18.005 Y40.139 Z-6.000 I17.682 J5.626 F400.000 
G2 X25.993 Y40.141 Z-6.000 I3.995 J-3.136 F400.000 
G2 X34.622 Y35.639 Z-6.000 I-3.968 J-18.126 F400.000 
G1 X34.622 Y35.639 Z-7.000 F120.000 
G2 X39.706 Y16.390 Z-7.000 I-12.598 J-13.623 F400.000 
G2 X35.714 Y9.471 Z-7.000 I-4.713 J-1.892 F400.000 
G2 X24.524 Y3.588 Z-7.000 I-13.686 J12.448 F400.000 
G2 X8.288 Y9.471 Z-7.000 I-2.528 J18.367 F400.000 
G2 X4.293 Y16.387 Z-7.000 I0.718 J5.027 F400.000 
G2 X18.005 Y40.139 Z-7.000 I17.682 J5.626 F400.000 
G2 X25.993 Y40.141 Z-7.000 I3.995 J-3.136 F400.000 
G2 X34.622 Y35.639 Z-7.000 I-3.968 J-18.126 F400.000 
G1 X34.622 Y35.639 Z-8.000 F120.000 
G2 X38.931 Y29.661 Z-8.000 I-12.598 J-13.623 F400.000 
G1 X38.931 Y29.661 Z-7.800 F120.000 
G2 X40.502 Y23.716 Z-7.800 I-16.907 J-7.645 F400.000 
G1 X40.502 Y23.716 Z-8.000 F120.000 
G2 X39.706 Y16.390 Z-8.000 I-18.477 J-1.701 F400.000 
G2 X35.714 Y9.471 Z-8.000 I-4.713 J-1.892 F400.000 
G2 X24.524 Y3.588 Z-8.000 I-13.686 J12.448 F400.000 
G2 X18.657 Y3.718 Z-8.000 I-2.528 J18.367 F400.000 
G1 X18.657 Y3.718 Z-7.800 F120.000 
G2 X12.876 Y5.812 Z-7.800 I3.338 J18.238 F400.000 
G1 X12.876 Y5.812 Z-8.000 F120.000 
G2 X8.288 Y9.471 Z-8.000 I9.119 J16.143 F400.000 
G2 X4.293 Y16.387 Z-8.000 I0.718 J5.027 F400.000 
G2 X4.590 Y28.500 Z-8.000 I17.682 J5.626 F400.000 
G1 X4.590 Y28.500 Z-7.800 F120.000 
G2 X7.664 Y33.825 Z-7.800 I17.384 J-6.487 F400.000 
G1 X7.664 Y33.825 Z-8.000 F120.000 
G2 X18.005 Y40.139 Z-8.000 I14.310 J-11.812 F400.000 
G2 X25.993 Y40.141 Z-8.000 I3.995 J-3.136 F400.000 
G2 X34.622 Y35.639 Z-8.000 I-3.968 J-18.126 F400.000 
G1 X34.622 Y35.639 Z-8.800 F120.000 
G2 X38.931 Y29.661 Z-8.800 I-12.598 J-13.623 F400.000 
G1 X38.931 Y29.661 Z-7.800 F120.000 
G2 X40.502 Y23.716 Z-7.800 I-16.907 J-7.645 F400.000 
G1 X40.502 Y23.716 Z-8.800 F120.000 
G2 X39.706 Y16.390 Z-8.800 I-18.477 J-1.701 F400.000 
G2 X35.714 Y9.471 Z-8.800 I-4.713 J-1.892 F400.000 
G2 X24.524 Y3.588 Z-8.800 I-13.686 J12.448 F400.000 
G2 X18.657 Y3.718 Z-8.800 I-2.528 J18.367 F400.000 
G1 X18.657 Y3.718 Z-7.800 F120.000 
G2 X12.876 Y5.812 Z-7.800 I3.338 J18.238 F400.000 
G1 X12.876 Y5.812 Z-8.800 F120.000 
G2 X8.288 Y9.471 Z-8.800 I9.119 J16.143 F400.000 
G2 X4.293 Y16.387 Z-8.800 I0.718 J5.027 F400.000 
G2 X4.590 Y28.500 Z-8.800 I17.682 J5.626 F400.000 
G1 X4.590 Y28.500 Z-7.800 F120.000 
G2 X7.664 Y33.825 Z-7.800 I17.384 J-6.487 F400.000 
G1 X7.664 Y33.825 Z-8.800 F120.000 
G2 X18.005 Y40.139 Z-8.800 I14.310 J-11.812 F400.000 
G2 X25.993 Y40.141 Z-8.800 I3.995 J-3.136 F400.000 
G2 X34.622 Y35.639 Z-8.800 I-3.968 J-18.126 F400.000 
G0 X34.622 Y35.639 Z5.000 
(finish operation: ExternProfile)
(begin postamble)
M05
G17 G54 G90 G80 G40
M2
